X: 25
T:G-Dur-Schleuniger #12
M:3/4
L:1/8
C:trad
R:Schleuniger
S:j.m. schmalnauer: "tanz musik", bhlau, wien 1996 (compa bd. 5) 
K:G
Bd|c2 (ABcD)|B2 DFGG,|F2 (DEFD)|G2 ADBD|
c2 (ABcD)|B2 DFGG,|F2 (DEFD)|G4  |
K:D
fa|g2 (efgA)|f2 (AcdD)|c2 (ABcA)|d2 eAfA)|
g2 (efgA)|f2 (AcdD)|c2 (ABcA)|d4  ||
